svgs/sharp-regular/credit-card-front.svg

<svg xmlns="http://www.w3.org/2000/svg" viewBox="0 0 576 512"><!--! Font Awesome Pro 6.6.0 by @fontawesome - https://fontawesome.com License - https://fontawesome.com/license (Commercial License) Copyright 2024 Fonticons, Inc. --><path d="M48 80l0 352 480 0 0-352L48 80zM0 32l48 0 480 0 48 0 0 48 0 352 0 48-48 0L48 480 0 480l0-48L0 80 0 32zM96 336l96 0 0 48-96 0 0-48zm128 0l160 0 0 48-160 0 0-48zM96 256l384 0 0 48L96 304l0-48zM480 128l0 96-128 0 0-96 128 0z"/></svg>

<svg xmlns="http://www.w3.org/2000/svg" viewBox="0 0 576 512"><!--! Font Awesome Pro 6.4.2 by @fontawesome - https://fontawesome.com License - https://fontawesome.com/license (Commercial License) Copyright 2023 Fonticons, Inc. --><path d="M48 80V432H528V80H48zM0 32H48 528h48V80 432v48H528 48 0V432 80 32zM96 336h96v48H96V336zm128 0H384v48H224V336zM96 256H480v48H96V256zM480 128v96H352V128H480z"/></svg>
